svgs/thin/toilet-portable.svg

<svg xmlns="http://www.w3.org/2000/svg" viewBox="0 0 320 512"><!--! Font Awesome Pro 6.6.0 by @fontawesome - https://fontawesome.com License - https://fontawesome.com/license (Commercial License) Copyright 2024 Fonticons, Inc. --><path d="M32 56c0-22.1 17.9-40 40-40l176 0c22.1 0 40 17.9 40 40l0 40L32 96l0-40zm272 56l0-16 0-40c0-30.9-25.1-56-56-56L72 0C41.1 0 16 25.1 16 56l0 40 0 16 0 336 0 16 0 40c0 4.4 3.6 8 8 8s8-3.6 8-8l0-40 256 0 0 40c0 4.4 3.6 8 8 8s8-3.6 8-8l0-40 0-16 0-336zM32 448l0-336 256 0 0 336L32 448zM248 216c-13.3 0-24 10.7-24 24l0 64c0 13.3 10.7 24 24 24l16 0c4.4 0 8-3.6 8-8s-3.6-8-8-8l-16 0c-4.4 0-8-3.6-8-8l0-64c0-4.4 3.6-8 8-8l16 0c4.4 0 8-3.6 8-8s-3.6-8-8-8l-16 0z"/></svg>

<svg xmlns="http://www.w3.org/2000/svg" viewBox="0 0 320 512"><!--! Font Awesome Pro 6.4.0 by @fontawesome - https://fontawesome.com License - https://fontawesome.com/license (Commercial License) Copyright 2023 Fonticons, Inc. --><path d="M32 56c0-22.1 17.9-40 40-40H248c22.1 0 40 17.9 40 40V96H32V56zm272 56V96 56c0-30.9-25.1-56-56-56H72C41.1 0 16 25.1 16 56V96v16V448v16 40c0 4.4 3.6 8 8 8s8-3.6 8-8V464H288v40c0 4.4 3.6 8 8 8s8-3.6 8-8V464 448 112zM32 448V112H288V448H32zM248 216c-13.3 0-24 10.7-24 24v64c0 13.3 10.7 24 24 24h16c4.4 0 8-3.6 8-8s-3.6-8-8-8H248c-4.4 0-8-3.6-8-8V240c0-4.4 3.6-8 8-8h16c4.4 0 8-3.6 8-8s-3.6-8-8-8H248z"/></svg>
